public/images/icons/switch.svg

<svg fill="none" height="300" stroke-width="5" width="300" xmlns="http://www.w3.org/2000/svg"><path d="m60 60v60h180v-60zm15 90v30m45-45v30m-15 0 15 15 15-15m45-30v30m-15 0 15 15 15-15m30-30v30m-15 0 15 15 15-15m-90-30v60m-15 0 15 15 15-15m-105-45 15-15 15 15m15-45 15-30v30m30-30v30m0-15 15 15m30-30q-15 15 0 30 15-15 0-30m-45 15h15v-15" fill="none" stroke="#eee" stroke-linecap="round" stroke-linejoin="round" stroke-width="5"/></svg>

<svg xmlns="http://www.w3.org/2000/svg" baseProfile="full" version="1.1" width="300px" height="300px" style="fill: none; width: 300px; height: 300px; stroke-width: 5;"><path d="" style="stroke-width: 1; stroke-linecap: round; stroke-linejoin: round; stroke: rgb(238, 238, 238); fill: rgb(238, 238, 238);"></path><path d="" style="stroke-width: 1; stroke-linecap: round; stroke-linejoin: round; stroke: rgb(238, 238, 238); fill: rgb(238, 238, 238);"></path><path d="M60,60 L60,60 L60,120 L240,120 L240,60 L60,60 M75,150 L75,150 L75,180 M120,135 L120,135 L120,165 M105,165 L105,165 L120,180 L135,165 M180,135 L180,135 L180,165 M165,165 L165,165 L180,180 L195,165 M225,135 L225,135 L225,165 M210,165 L210,165 L225,180 L240,165 M150,135 L150,135 L150,195 M135,195 L135,195 L150,210 L165,195 M60,150 L60,150 L75,135 L90,150 M105,105 L105,105 L120,75 L120,105 M150,75 L150,75 L150,105 M150,90 L150,90 L165,105 M195,75 Q180,90 195,105 Q210,90 195,75 M150,90 L150,90 L165,90 L165,75 " style="stroke-width: 5; stroke-linecap: round; stroke-linejoin: round; stroke: rgb(238, 238, 238); fill: none;"></path></svg>
